assets/images/icons/map.svg

<svg fill="none" height="42" viewBox="0 0 46 42" width="46" xmlns="http://www.w3.org/2000/svg"><path d="m45.288 37.3686-9.9502-2.0176-18.8238 6.0506-15.59774-4.033v-34.68997l15.05984 4.03299 19.3617-6.050487 9.9502 2.017497z" fill="#85c88e"/><path d="m43.5304 35.2673-9.1613-1.857v-30.73159l9.1613 1.85714z" fill="#71c176"/><path d="m34.3692 33.4103-17.3329 5.571-.496-30.73146 17.8289-5.57113z" fill="#57ba68"/><path d="m17.0363 38.9811-14.36223-3.714v-30.73146l13.86623 3.71399z" fill="#6cc077"/><path d="m14.9673 38.427-12.29323-3.3356v-12.1311s4.529-3.0044 9.82203-3.2201c5.2931-.2158 12.6068.5722 11.8497 6.0816-.7558 5.5084-9.3785 12.6052-9.3785 12.6052z" fill="#f0ebd6"/><path d="m13.7132 38.0747-11.03913-2.8556v-11.2195s4.33361-2.8744 9.39743-3.0806c5.0647-.2067 11.3687-.1036 10.645 5.1674s-9.0033 11.9883-9.0033 11.9883z" fill="#67b8cb"/><path d="m16.8508 20.9653c3.5547.2895 6.3732 1.4238 5.8659 5.1212-.4172 3.042-3.2728 6.5659-5.6801 9.0023z" fill="#5fadb5"/><path d="m35.9296 23.1016c-1.7459-12.5494 6.13-16.82023 7.6009-17.50301v-1.06295l-.4499-.0913c-1.8693.96374-8.8299 5.26878-8.5953 15.77486-.7382-1.3663-1.6976-2.9318-3.108-4.7363-6.7387-8.62799-26.76139-.0219-28.70323.8407v1.3969c2.79447-1.2079 21.83673-9.06186 27.75023-1.4919 2.1782 2.7859 3.2046 4.9043 4.1102 6.7726 1.5762 3.2519 3.1226 5.9351 8.9959 8.9169v-1.486c-5.0153-2.5711-6.2334-4.5473-7.6008-7.3305z" fill="#fff"/><path d="m43.5305 5.59859v-1.06295l-.45-.0913c-1.8693.96374-8.8298 5.26878-8.5953 15.77486-.7382-1.3663-1.6976-2.9318-3.108-4.7363-3.1176-3.991-9.0773-4.2928-14.7747-3.3806l.021 1.3508c5.4696-.9283 11.0519-.7414 13.8002 2.7756 2.1781 2.7859 3.2046 4.9043 4.1102 6.7727 1.5762 3.2518 3.1225 5.935 8.9958 8.9168v-1.4861c-5.0154-2.5711-6.2336-4.5478-7.6009-7.3305-1.7452-12.5494 6.1307-16.82008 7.6017-17.50301z" fill="#dddddc"/><path d="m2.67407 16.3235v1.3969c1.49622-.6459 7.64823-3.197 13.95003-4.2676l-.0209-1.3507c-6.61973 1.0587-12.88499 3.7582-13.92913 4.2214z" fill="#f0ebd6"/><path d="m43.0805 4.44434c-1.8693.96374-8.8299 5.26878-8.5953 15.77486-.0376-.0692-.0778-.1407-.1165-.211v2.6516c.0558.1144.1101.2277.1659.341 1.5762 3.2518 3.1225 5.935 8.9958 8.9169v-1.4861c-5.0153-2.5711-6.2336-4.5478-7.6009-7.3305-1.7459-12.5487 6.13-16.81958 7.6009-17.50251v-1.06295z" fill="#f0ebd6"/><path d="m27.5167 13.1841c-2.5555 0-4.6273 2.0717-4.6273 4.6273 0 3.3662 4.3675 7.8663 4.7604 7.8663.392 0 4.4941-4.8968 4.4941-7.8663.0002-2.555-2.0706-4.6273-4.6272-4.6273zm-.0219 6.1739c-1.0024 0-1.8152-.7907-1.8152-1.7668s.8128-1.768 1.8152-1.768c1.0033 0 1.8162.7919 1.8162 1.768s-.8129 1.7668-1.8162 1.7668z" fill="#c30"/><path d="m27.65 25.9468c-.5885 0-5.0289-4.6842-5.0289-8.1346 0-2.6999 2.1968-4.8957 4.8957-4.8957 2.6998 0 4.8956 2.1958 4.8956 4.8957.0002 2.8625-4.0328 8.1346-4.7624 8.1346zm-.1332-12.4941c-2.4036 0-4.3589 1.9558-4.3589 4.3589 0 3.042 3.7602 7.0936 4.4839 7.5698.6598-.5095 4.2343-4.857 4.2343-7.5698-.0005-2.4031-1.9547-4.3589-4.3593-4.3589zm-.022 6.174c-1.1495 0-2.0836-.9132-2.0836-2.0353 0-1.1231.9342-2.0363 2.0836-2.0363s2.0847.9132 2.0847 2.0363c0 1.1221-.9353 2.0353-2.0847 2.0353zm0-3.5347c-.8525 0-1.5468.6722-1.5468 1.4995 0 .8262.6942 1.4984 1.5468 1.4984.8536 0 1.5477-.6722 1.5477-1.4984 0-.8273-.6941-1.4995-1.5477-1.4995z" fill="#e4b422"/></svg>

<svg width="46" height="42" viewBox="0 0 46 42" fill="none" xmlns="http://www.w3.org/2000/svg">
<path d="M45.288 37.3686L35.3378 35.351L16.514 41.4016L0.91626 37.3686V2.67863L15.9761 6.71162L35.3378 0.661133L45.288 2.67863V37.3686Z" fill="#85C88E"/>
<path d="M43.5304 35.2673L34.3691 33.4103V2.67871L43.5304 4.53585V35.2673Z" fill="#71C176"/>
<path d="M34.3692 33.4103L17.0363 38.9813L16.5403 8.24984L34.3692 2.67871V33.4103Z" fill="#57BA68"/>
<path d="M17.0363 38.9811L2.67407 35.2671V4.53564L16.5403 8.24963L17.0363 38.9811Z" fill="#6CC077"/>
<path d="M14.9673 38.427L2.67407 35.0914V22.9603C2.67407 22.9603 7.20307 19.9559 12.4961 19.7402C17.7892 19.5244 25.1029 20.3124 24.3458 25.8218C23.59 31.3302 14.9673 38.427 14.9673 38.427Z" fill="#F0EBD6"/>
<path d="M13.7132 38.0747L2.67407 35.2191V23.9996C2.67407 23.9996 7.00768 21.1252 12.0715 20.919C17.1362 20.7123 23.4402 20.8154 22.7165 26.0864C21.9928 31.3574 13.7132 38.0747 13.7132 38.0747Z" fill="#67B8CB"/>
<path d="M16.8508 20.9653C20.4055 21.2548 23.224 22.3891 22.7167 26.0865C22.2995 29.1285 19.4439 32.6524 17.0366 35.0888L16.8508 20.9653Z" fill="#5FADB5"/>
<path d="M35.9296 23.1016C34.1837 10.5522 42.0596 6.28137 43.5305 5.59859V4.53564L43.0806 4.44434C41.2113 5.40808 34.2507 9.71312 34.4853 20.2192C33.7471 18.8529 32.7877 17.2874 31.3773 15.4829C24.6386 6.85491 4.61591 15.461 2.67407 16.3236V17.7205C5.46854 16.5126 24.5108 8.65864 30.4243 16.2286C32.6025 19.0145 33.6289 21.1329 34.5345 23.0012C36.1107 26.2531 37.6571 28.9363 43.5304 31.9181V30.4321C38.5151 27.861 37.297 25.8848 35.9296 23.1016Z" fill="white"/>
<path d="M43.5305 5.59859V4.53564L43.0805 4.44434C41.2112 5.40808 34.2507 9.71312 34.4852 20.2192C33.747 18.8529 32.7876 17.2874 31.3772 15.4829C28.2596 11.4919 22.2999 11.1901 16.6025 12.1023L16.6235 13.4531C22.0931 12.5248 27.6754 12.7117 30.4237 16.2287C32.6018 19.0146 33.6283 21.133 34.5339 23.0014C36.1101 26.2532 37.6564 28.9364 43.5297 31.9182V30.4321C38.5143 27.861 37.2961 25.8843 35.9288 23.1016C34.1836 10.5522 42.0595 6.28152 43.5305 5.59859Z" fill="#DDDDDC"/>
<path d="M2.67407 16.3235V17.7204C4.17029 17.0745 10.3223 14.5234 16.6241 13.4528L16.6032 12.1021C9.98347 13.1608 3.71821 15.8603 2.67407 16.3235Z" fill="#F0EBD6"/>
<path d="M43.0805 4.44434C41.2112 5.40808 34.2506 9.71312 34.4852 20.2192C34.4476 20.15 34.4074 20.0785 34.3687 20.0082V22.6598C34.4245 22.7742 34.4788 22.8875 34.5346 23.0008C36.1108 26.2526 37.6571 28.9358 43.5304 31.9177V30.4316C38.5151 27.8605 37.2968 25.8838 35.9295 23.1011C34.1836 10.5524 42.0595 6.28152 43.5304 5.59859V4.53564L43.0805 4.44434Z" fill="#F0EBD6"/>
<path d="M27.5167 13.1841C24.9612 13.1841 22.8894 15.2558 22.8894 17.8114C22.8894 21.1776 27.2569 25.6777 27.6498 25.6777C28.0418 25.6777 32.1439 20.7809 32.1439 17.8114C32.1441 15.2564 30.0733 13.1841 27.5167 13.1841ZM27.4948 19.358C26.4924 19.358 25.6796 18.5673 25.6796 17.5912C25.6796 16.6151 26.4924 15.8232 27.4948 15.8232C28.4981 15.8232 29.311 16.6151 29.311 17.5912C29.311 18.5673 28.4981 19.358 27.4948 19.358Z" fill="#CC3300"/>
<path d="M27.65 25.9468C27.0615 25.9468 22.6211 21.2626 22.6211 17.8122C22.6211 15.1123 24.8179 12.9165 27.5168 12.9165C30.2166 12.9165 32.4124 15.1123 32.4124 17.8122C32.4126 20.6747 28.3796 25.9468 27.65 25.9468ZM27.5168 13.4527C25.1132 13.4527 23.1579 15.4085 23.1579 17.8116C23.1579 20.8536 26.9181 24.9052 27.6418 25.3814C28.3016 24.8719 31.8761 20.5244 31.8761 17.8116C31.8756 15.4085 29.9214 13.4527 27.5168 13.4527ZM27.4948 19.6267C26.3453 19.6267 25.4112 18.7135 25.4112 17.5914C25.4112 16.4683 26.3454 15.5551 27.4948 15.5551C28.6442 15.5551 29.5795 16.4683 29.5795 17.5914C29.5795 18.7135 28.6442 19.6267 27.4948 19.6267ZM27.4948 16.092C26.6423 16.092 25.948 16.7642 25.948 17.5915C25.948 18.4177 26.6422 19.0899 27.4948 19.0899C28.3484 19.0899 29.0425 18.4177 29.0425 17.5915C29.0425 16.7642 28.3484 16.092 27.4948 16.092Z" fill="#E4B422"/>
</svg>
